emoticon-kiss.svg

<svg fill="currentColor" viewBox="0 0 24 24"><path d="M18.9 18.94 15.94 16c-.18-.21-.39-.5-.39-.95a1.3 1.3 0 0 1 1.3-1.3c.34 0 .68.14.92.4l1.14 1.11 1.12-1.13c.24-.24.58-.38.92-.38a1.3 1.3 0 0 1 1.3 1.3c0 .34-.14.68-.38.92zm-1.44.68A9.93 9.93 0 0 1 11 22 10 10 0 0 1 1 12 10 10 0 0 1 11 2a10 10 0 0 1 10 10c0 .09 0 .17-.05.25-.74 0-1.45.3-1.98.82l-.07.07-.06-.05a2.76 2.76 0 0 0-1.99-.84 2.8 2.8 0 0 0-2.8 2.8c0 .73.29 1.45.82 1.98zM13 9.5c0 .8.7 1.5 1.5 1.5s1.5-.7 1.5-1.5S15.3 8 14.5 8 13 8.7 13 9.5m-4 0C9 8.7 8.3 8 7.5 8S6 8.7 6 9.5 6.7 11 7.5 11 9 10.3 9 9.5m3.94 5.68L14 14.12 11.88 12l-1.06 1.06 1.06 1.06-1.06 1.06 1.06 1.06-1.06 1.06 1.06 1.06L14 16.24z"/></svg>

<svg  viewBox="0 0 24 24" fill="currentColor"><path  d="M18.9,18.94L15.94,16C15.76,15.79 15.55,15.5 15.55,15.05A1.3,1.3 0 0,1 16.85,13.75C17.19,13.75 17.53,13.89 17.77,14.15L18.91,15.26L20.03,14.13C20.27,13.89 20.61,13.75 20.95,13.75A1.3,1.3 0 0,1 22.25,15.05C22.25,15.39 22.11,15.73 21.87,15.97L18.9,18.94M17.46,19.62C15.72,21.1 13.47,22 11,22A10,10 0 0,1 1,12A10,10 0 0,1 11,2A10,10 0 0,1 21,12C21,12.09 21,12.17 20.95,12.25C20.21,12.25 19.5,12.55 18.97,13.07L18.9,13.14L18.84,13.09C18.32,12.55 17.6,12.25 16.85,12.25A2.8,2.8 0 0,0 14.05,15.05C14.05,15.78 14.34,16.5 14.87,17.03L17.46,19.62M13,9.5C13,10.3 13.7,11 14.5,11C15.3,11 16,10.3 16,9.5C16,8.7 15.3,8 14.5,8C13.7,8 13,8.7 13,9.5M9,9.5C9,8.7 8.3,8 7.5,8C6.7,8 6,8.7 6,9.5C6,10.3 6.7,11 7.5,11C8.3,11 9,10.3 9,9.5M12.94,15.18L14,14.12L11.88,12L10.82,13.06L11.88,14.12L10.82,15.18L11.88,16.24L10.82,17.3L11.88,18.36L14,16.24L12.94,15.18Z"/></svg>
